src/scalable/mimetypes/none.svg

<?xml version="1.0" encoding="UTF-8" standalone="no"?>
<svg
   xmlns:dc="http://purl.org/dc/elements/1.1/"
   xmlns:cc="http://creativecommons.org/ns#"
   xmlns:rdf="http://www.w3.org/1999/02/22-rdf-syntax-ns#"
   xmlns:svg="http://www.w3.org/2000/svg"
   xmlns="http://www.w3.org/2000/svg"
   xmlns:xlink="http://www.w3.org/1999/xlink"
   xmlns:sodipodi="http://sodipodi.sourceforge.net/DTD/sodipodi-0.dtd"
   xmlns:inkscape="http://www.inkscape.org/namespaces/inkscape"
   width="48px"
   height="48px"
   viewBox="0 0 48 48"
   version="1.1"
   id="svg18"
   sodipodi:docname="none.svg"
   inkscape:version="0.92.2 2405546, 2018-03-11">
  <metadata
     id="metadata22">
    <rdf:RDF>
      <cc:Work
         rdf:about="">
        <dc:format>image/svg+xml</dc:format>
        <dc:type
           rdf:resource="http://purl.org/dc/dcmitype/StillImage" />
      </cc:Work>
    </rdf:RDF>
  </metadata>
  <sodipodi:namedview
     pagecolor="#ffffff"
     bordercolor="#666666"
     borderopacity="1"
     objecttolerance="10"
     gridtolerance="10"
     guidetolerance="10"
     inkscape:pageopacity="0"
     inkscape:pageshadow="2"
     inkscape:window-width="730"
     inkscape:window-height="480"
     id="namedview20"
     showgrid="false"
     inkscape:zoom="3.4766083"
     inkscape:cx="24.168494"
     inkscape:cy="31.582214"
     inkscape:window-x="562"
     inkscape:window-y="160"
     inkscape:window-maximized="0"
     inkscape:current-layer="svg18" />
  <!-- Generator: Sketch 41.2 (35397) - http://www.bohemiancoding.com/sketch -->
  <title
     id="title2">none</title>
  <desc
     id="desc4">Created with Sketch.</desc>
  <g
     id="g829">
    <rect
       rx="2"
       ry="1.9047618"
       y="4"
       x="6"
       height="40"
       width="36"
       id="rect834"
       style="opacity:1;fill:#f2f2f2;fill-opacity:1;stroke:none;stroke-width:0.92582005;stroke-linecap:round;stroke-linejoin:round;stroke-miterlimit:4;stroke-dasharray:none;stroke-opacity:0.05882353;paint-order:markers stroke fill" />
    <path
       inkscape:connector-curvature="0"
       id="rect866"
       d="M 42,17.242188 A 40,40 0 0 1 23.494141,44 H 40 c 1.108,0 2,-0.849059 2,-1.904297 z"
       style="opacity:0.15;fill:url(#linearGradient877);fill-opacity:1;stroke:none;stroke-width:0.92582005;stroke-linecap:round;stroke-linejoin:round;stroke-miterlimit:4;stroke-dasharray:none;stroke-opacity:0.05882353;paint-order:markers stroke fill" />
  </g>
  <defs
     id="defs11">
    <linearGradient
       inkscape:collect="always"
       xlink:href="#linearGradient875"
       id="linearGradient877"
       x1="32.74707"
       y1="44"
       x2="32.74707"
       y2="17.242188"
       gradientUnits="userSpaceOnUse" />
    <linearGradient
       inkscape:collect="always"
       id="linearGradient875">
      <stop
         style="stop-color:#000000;stop-opacity:1;"
         offset="0"
         id="stop871" />
      <stop
         style="stop-color:#000000;stop-opacity:0;"
         offset="1"
         id="stop873" />
    </linearGradient>
  </defs>
  <g
     id="Page-1"
     stroke="none"
     stroke-width="1"
     fill="none"
     fill-rule="evenodd"
     style="fill:#666666">
    <g
       id="none"
       style="fill:#666666">
      <path
         d="M18.296875,21.4257812 C18.296875,20.68359 18.5351539,19.9316444 19.0117188,19.1699219 C19.4882836,18.4081993 20.1835892,17.7773463 21.0976562,17.2773438 C22.0117233,16.7773412 23.0781189,16.5273438 24.296875,16.5273438 C25.4296932,16.5273438 26.4296832,16.736326 27.296875,17.1542969 C28.1640668,17.5722677 28.833982,18.1406214 29.3066406,18.859375 C29.7792992,19.5781286 30.015625,20.3593708 30.015625,21.203125 C30.015625,21.8671908 29.8808607,22.4492162 29.6113281,22.9492188 C29.3417955,23.4492213 29.0214862,23.8808576 28.6503906,24.2441406 C28.279295,24.6074237 27.6132861,25.2187457 26.6523438,26.078125 C26.3867174,26.3203137 26.1738289,26.5332022 26.0136719,26.7167969 C25.8535148,26.9003915 25.7343754,27.0683586 25.65625,27.2207031 C25.5781246,27.3730476 25.5175783,27.5253899 25.4746094,27.6777344 C25.4316404,27.8300789 25.3671879,28.0976543 25.28125,28.4804688 C25.1328118,29.2929728 24.6679727,29.6992188 23.8867188,29.6992188 C23.4804667,29.6992188 23.1386733,29.5664076 22.8613281,29.3007812 C22.583983,29.0351549 22.4453125,28.6406276 22.4453125,28.1171875 C22.4453125,27.4609342 22.546874,26.8925805 22.75,26.4121094 C22.953126,25.9316382 23.2226546,25.5097674 23.5585938,25.1464844 C23.8945329,24.7832013 24.3476534,24.351565 24.9179688,23.8515625 C25.4179713,23.4140603 25.7792958,23.0839855 26.0019531,22.8613281 C26.2246105,22.6386708 26.4121086,22.3906264 26.5644531,22.1171875 C26.7167976,21.8437486 26.7929688,21.5468766 26.7929688,21.2265625 C26.7929688,20.6015594 26.5605492,20.0742209 26.0957031,19.6445312 C25.6308571,19.2148416 25.0312537,19 24.296875,19 C23.4374957,19 22.8046895,19.2167947 22.3984375,19.6503906 C21.9921855,20.0839865 21.6484389,20.722652 21.3671875,21.5664062 C21.1015612,22.4492232 20.59766,22.890625 19.8554688,22.890625 C19.4179666,22.890625 19.0488296,22.7363297 18.7480469,22.4277344 C18.4472641,22.1191391 18.296875,21.785158 18.296875,21.4257812 Z M24.015625,34.2695312 C23.5390601,34.2695312 23.1230487,34.1152359 22.7675781,33.8066406 C22.4121076,33.4980453 22.234375,33.066409 22.234375,32.5117188 C22.234375,32.0195288 22.4062483,31.6054704 22.75,31.2695312 C23.0937517,30.9335921 23.5156225,30.765625 24.015625,30.765625 C24.507815,30.765625 24.9218733,30.9335921 25.2578125,31.2695312 C25.5937517,31.6054704 25.7617188,32.0195288 25.7617188,32.5117188 C25.7617188,33.0585965 25.5859393,33.4882797 25.234375,33.8007812 C24.8828107,34.1132828 24.4765648,34.2695312 24.015625,34.2695312 Z"
         id="?"
         fill="#FFFFFF"
         style="fill:#666666" />
    </g>
  </g>
</svg>

<svg xmlns="http://www.w3.org/2000/svg" xmlns:xlink="http://www.w3.org/1999/xlink" width="48" height="48"><g paint-order="markers stroke fill"><rect rx="2" ry="1.905" y="4" x="6" height="40" width="36" fill="#f2f2f2"/><path d="M42 17.242A40 40 0 0 1 23.494 44H40c1.108 0 2-.85 2-1.904z" opacity=".15" fill="url(#a)"/></g><defs><linearGradient xlink:href="#b" id="a" x1="32.747" y1="44" x2="32.747" y2="17.242" gradientUnits="userSpaceOnUse"/><linearGradient id="b"><stop offset="0"/><stop offset="1" stop-opacity="0"/></linearGradient></defs><path d="M18.297 21.426c0-.742.238-1.494.715-2.256.476-.762 1.172-1.393 2.086-1.893.914-.5 1.98-.75 3.199-.75 1.133 0 2.133.21 3 .627.867.418 1.537.987 2.01 1.705.472.72.709 1.5.709 2.344 0 .664-.135 1.246-.405 1.746s-.59.932-.96 1.295c-.372.363-1.038.975-1.999 1.834a8.134 8.134 0 0 0-.638.639c-.16.183-.28.351-.358.504a2.473 2.473 0 0 0-.181.457c-.043.152-.108.42-.194.802-.148.813-.613 1.22-1.394 1.22-.407 0-.748-.134-1.026-.4-.277-.265-.416-.66-.416-1.183 0-.656.102-1.224.305-1.705.203-.48.473-.902.809-1.266.336-.363.789-.794 1.359-1.294.5-.438.861-.768 1.084-.99.223-.223.41-.471.562-.745a1.8 1.8 0 0 0 .229-.89 2.07 2.07 0 0 0-.697-1.582c-.465-.43-1.065-.645-1.8-.645-.859 0-1.491.217-1.898.65-.406.434-.75 1.073-1.03 1.916-.266.883-.77 1.325-1.513 1.325-.437 0-.806-.155-1.107-.463-.3-.309-.451-.643-.451-1.002zm5.719 12.844c-.477 0-.893-.155-1.248-.463-.356-.309-.534-.74-.534-1.295 0-.492.172-.907.516-1.242a1.741 1.741 0 0 1 1.266-.504c.492 0 .906.168 1.242.504.336.335.504.75.504 1.242 0 .547-.176.976-.528 1.289a1.78 1.78 0 0 1-1.218.469z" fill="#666" fill-rule="evenodd"/></svg>
